X:0597
T:She had something else to do.
M:C
L:1/8
Q:1/4=88
I: || :|
Z:Jack Campin * www.campin.me.uk * 2009
K:G
dc|   B2AG d2d2|e2ge  d3d|(ed)(cB)   A2 d>c|B2G2 G2
dc|{c}B2AG d2d2|e2g>e d3f| g2  b<g   e2 a>g|f2d2 d3||
 d|   g3 a b2ag|a2d2  d3B| e3   f {a}g2(fe)|d2B2 B3
 d|   G3 A B3 d|edcB  A3d|Hg2   z2   z2 zB |cdec A3
 c|   BcdB G3 d|g3 z z2ze|dcBA G2|]
<end>
<start>
